icons/work/click-icon.svg

<svg width="18" height="18" viewBox="0 0 18 18" fill="none" xmlns="http://www.w3.org/2000/svg">
<g clip-path="url(#clip0)">
<path d="M17.8455 14.8625L14.8042 11.8212L16.2958 10.3297C16.425 10.2004 16.4781 10.0135 16.4361 9.83561C16.3941 9.65772 16.2631 9.51428 16.0897 9.45648L7.14036 6.47337C6.95091 6.41019 6.74194 6.45952 6.60072 6.60078C6.45946 6.74203 6.41013 6.95093 6.47331 7.14043L9.45642 16.0898C9.51426 16.2632 9.65769 16.3943 9.83555 16.4362C10.0134 16.4783 10.2004 16.4252 10.3296 16.2959L11.8212 14.8043L14.8625 17.8456C14.9654 17.9486 15.1004 18.0001 15.2353 18.0001C15.3703 18.0001 15.5053 17.9486 15.6082 17.8456L17.8455 15.6083C18.0515 15.4023 18.0515 15.0684 17.8455 14.8625ZM15.2353 16.7269L12.194 13.6857C11.9881 13.4797 11.6541 13.4797 11.4482 13.6857L10.1871 14.9468L7.80738 7.80748L14.9467 10.1872L13.6856 11.4483C13.4798 11.6541 13.4796 11.9882 13.6856 12.1941L16.7269 15.2354L15.2353 16.7269Z" fill="white"/>
<path d="M6.85547 4.21875C7.1467 4.21875 7.38281 3.98264 7.38281 3.69141V0.527344C7.38281 0.236109 7.1467 0 6.85547 0C6.56423 0 6.32812 0.236109 6.32812 0.527344V3.69141C6.32812 3.98264 6.56423 4.21875 6.85547 4.21875Z" fill="white"/>
<path d="M2.75368 2.00797C2.54777 1.80203 2.21386 1.80203 2.00791 2.00797C1.80197 2.21392 1.80197 2.5478 2.00791 2.75374L4.24526 4.99109C4.45117 5.19703 4.78512 5.19703 4.99103 4.99109C5.19697 4.78514 5.19697 4.45126 4.99103 4.24532L2.75368 2.00797Z" fill="white"/>
<path d="M4.24526 8.71989L2.00791 10.9572C1.80197 11.1632 1.80197 11.4971 2.00791 11.703C2.21382 11.9089 2.54777 11.9089 2.75368 11.703L4.99103 9.46566C5.19697 9.25971 5.19697 8.92583 4.99103 8.71989C4.78508 8.51394 4.45117 8.51394 4.24526 8.71989Z" fill="white"/>
<path d="M9.46566 4.99109L11.703 2.75374C11.9089 2.5478 11.9089 2.21392 11.703 2.00797C11.4971 1.80203 11.1632 1.80203 10.9572 2.00797L8.71989 4.24532C8.51394 4.45126 8.51394 4.78514 8.71989 4.99109C8.9258 5.19703 9.25975 5.19703 9.46566 4.99109Z" fill="white"/>
<path d="M4.21875 6.85547C4.21875 6.56423 3.98264 6.32812 3.69141 6.32812H0.527344C0.236109 6.32812 0 6.56423 0 6.85547C0 7.1467 0.236109 7.38281 0.527344 7.38281H3.69141C3.98264 7.38281 4.21875 7.1467 4.21875 6.85547Z" fill="white"/>
</g>
<defs>
<clipPath id="clip0">
<rect width="18" height="18" fill="white"/>
</clipPath>
</defs>
</svg>

<svg xmlns="http://www.w3.org/2000/svg" fill="none" viewBox="0 0 18 18"><g fill="#fff" clip-path="url(#clip0)"><path d="M17.846 14.863l-3.042-3.042 1.492-1.491a.527.527 0 0 0-.206-.874L7.14 6.473a.527.527 0 0 0-.667.667l2.983 8.95a.527.527 0 0 0 .874.206l1.491-1.492 3.042 3.042a.525.525 0 0 0 .745 0l2.238-2.238a.527.527 0 0 0 0-.745zm-2.61 1.864l-3.042-3.041a.527.527 0 0 0-.746 0l-1.26 1.26-2.38-7.139 7.139 2.38-1.261 1.261a.527.527 0 0 0 0 .746l3.04 3.041-1.49 1.492zM6.855 4.219a.527.527 0 0 0 .528-.528V.527a.527.527 0 0 0-1.055 0v3.164c0 .292.236.528.527.528zM2.754 2.008a.527.527 0 1 0-.746.746L4.245 4.99a.527.527 0 1 0 .746-.746L2.754 2.008zM4.245 8.72l-2.237 2.237a.527.527 0 0 0 .746.746L4.99 9.466a.527.527 0 1 0-.746-.746zM9.466 4.991l2.237-2.237a.527.527 0 0 0-.746-.746L8.72 4.245a.527.527 0 1 0 .746.746zM4.219 6.855a.527.527 0 0 0-.528-.527H.527a.527.527 0 0 0 0 1.055h3.164a.527.527 0 0 0 .528-.528z"/></g><defs><clipPath id="clip0"><path fill="#fff" d="M0 0h18v18H0z"/></clipPath></defs></svg>
